assets/svg/1F68A.svg

<svg xmlns="http://www.w3.org/2000/svg" viewBox="0 0 64 64" enable-background="new 0 0 64 64"><path fill="#86a7ac" d="m59.898 64h-55.796l9.368-21.55h37.05z"/><path fill="#63797b" d="m54.776 64h-45.55l7.65-17.6h30.24z"/><path fill="#d1d2d3" d="m55.867 24.953c0 13.609-5.385 24.642-12.03 24.642h-23.678c-6.642 0-12.03-11.03-12.03-24.642l0 0c0-13.608 5.385-24.642 12.03-24.642h23.678c6.644 0 12.03 11.03 12.03 24.642l0 0"/><path fill="#bcbdbf" d="m28.57 31.569c-6.938-4.991-14.11-10.906-19.06-18.06-.88 3.422-1.382 7.313-1.382 11.448 0 13.609 5.385 24.642 12.03 24.642h23.678c3.047 0 5.823-2.342 7.942-6.17-8.196-2.842-16.03-6.69-23.21-11.856"/><path fill="#c12f49" d="m50.48 18.898c0 9.556-4.171 17.303-9.312 17.303h-18.328c-5.145 0-9.313-7.747-9.313-17.303l0 0c0-9.558 4.168-17.305 9.313-17.305h18.328c5.141 0 9.312 7.748 9.312 17.305l0 0"/><path fill="#243438" d="m50.48 17.305c0 9.556-4.171 17.303-9.312 17.303h-18.328c-5.145 0-9.313-7.748-9.313-17.303l0 0c0-9.557 4.168-17.305 9.313-17.305h18.328c5.141 0 9.312 7.748 9.312 17.305l0 0"/><path fill="#a3d5e1" d="m41.25 34.596c4.02-.056 7.421-4.122 8.688-9.784-11.418-4.685-21.631-11.07-28.05-19.497-1.575.251-3.03 1.141-4.272 2.478 2.816 11.307 11.382 22.21 23.632 26.803"/><g fill="#fbed21"><path d="m21.15 40.654c-.99 1.663-3.02 2.278-4.543 1.374l-4.104-2.449c-1.52-.904-1.948-2.987-.956-4.652l0 0c.992-1.661 3.03-2.274 4.545-1.37l4.106 2.447c1.517.906 1.944 2.987.952 4.65l0 0"/><path d="m43.26 40.654c.993 1.663 3.03 2.278 4.547 1.374l4.104-2.449c1.52-.904 1.947-2.987.956-4.652l0 0c-.992-1.661-3.03-2.274-4.545-1.37l-4.106 2.447c-1.52.906-1.946 2.987-.956 4.65l0 0"/></g></svg>

<?xml version="1.0" encoding="UTF-8" standalone="no"?>
<!-- Generator: Adobe Illustrator 16.0.0, SVG Export Plug-In . SVG Version: 6.00 Build 0)  -->

<svg
   xmlns:dc="http://purl.org/dc/elements/1.1/"
   xmlns:cc="http://creativecommons.org/ns#"
   xmlns:rdf="http://www.w3.org/1999/02/22-rdf-syntax-ns#"
   xmlns:svg="http://www.w3.org/2000/svg"
   xmlns="http://www.w3.org/2000/svg"
   xmlns:sodipodi="http://sodipodi.sourceforge.net/DTD/sodipodi-0.dtd"
   xmlns:inkscape="http://www.inkscape.org/namespaces/inkscape"
   version="1.1"
   id="Layer_1"
   x="0px"
   y="0px"
   width="64px"
   height="64px"
   viewBox="0 0 64 64"
   enable-background="new 0 0 64 64"
   xml:space="preserve"
   inkscape:version="0.48.5 r10040"
   sodipodi:docname="1F68A.svg"
   inkscape:export-filename="D:\TESTINGEMOJI\SVGTEST\1F68A.png"
   inkscape:export-xdpi="90"
   inkscape:export-ydpi="90"><metadata
   id="metadata3285"><rdf:RDF><cc:Work
       rdf:about=""><dc:format>image/svg+xml</dc:format><dc:type
         rdf:resource="http://purl.org/dc/dcmitype/StillImage" /><dc:title></dc:title></cc:Work></rdf:RDF></metadata><defs
   id="defs3283" /><sodipodi:namedview
   pagecolor="#ffffff"
   bordercolor="#666666"
   borderopacity="1"
   objecttolerance="10"
   gridtolerance="10"
   guidetolerance="10"
   inkscape:pageopacity="0"
   inkscape:pageshadow="2"
   inkscape:window-width="640"
   inkscape:window-height="480"
   id="namedview3281"
   showgrid="false"
   inkscape:zoom="3.6875"
   inkscape:cx="32"
   inkscape:cy="32"
   inkscape:window-x="671"
   inkscape:window-y="305"
   inkscape:window-maximized="0"
   inkscape:current-layer="Layer_1" />
<g
   id="g3243">
	<g
   id="g3245">
		<polygon
   fill="#86A7AC"
   points="59.898,64 4.102,64 13.47,42.445 50.525,42.445   "
   id="polygon3247" />
	</g>
	<g
   id="g3249">
		<polygon
   fill="#63797B"
   points="54.776,64 9.226,64 16.876,46.404 47.124,46.404   "
   id="polygon3251" />
	</g>
	<g
   id="g3253">
		<path
   fill="#D1D2D3"
   d="M55.867,24.953c0,13.609-5.385,24.642-12.029,24.642H20.16c-6.642,0-12.027-11.033-12.027-24.642l0,0    c0-13.608,5.385-24.642,12.027-24.642h23.678C50.482,0.311,55.867,11.344,55.867,24.953L55.867,24.953z"
   id="path3255" />
	</g>
	<g
   id="g3257">
		<path
   fill="#BCBDBF"
   d="M28.57,31.569c-6.938-4.991-14.112-10.906-19.056-18.064c-0.88,3.422-1.382,7.313-1.382,11.448    c0,13.609,5.385,24.642,12.027,24.642h23.678c3.047,0,5.823-2.342,7.942-6.17C43.583,40.583,35.752,36.735,28.57,31.569z"
   id="path3259" />
	</g>
	<g
   id="g3261">
		<path
   fill="#C12F49"
   d="M50.479,18.898c0,9.556-4.171,17.303-9.312,17.303H22.839c-5.145,0-9.313-7.747-9.313-17.303l0,0    c0-9.558,4.168-17.305,9.313-17.305h18.328C46.308,1.593,50.479,9.341,50.479,18.898L50.479,18.898z"
   id="path3263" />
	</g>
	<g
   id="g3265">
		<path
   fill="#243438"
   d="M50.479,17.305c0,9.556-4.171,17.303-9.312,17.303H22.839c-5.145,0-9.313-7.748-9.313-17.303l0,0    C13.526,7.748,17.694,0,22.839,0h18.328C46.308,0,50.479,7.748,50.479,17.305L50.479,17.305z"
   id="path3267" />
	</g>
	<g
   id="g3269">
		<path
   fill="#A3D5E1"
   d="M41.249,34.596c4.017-0.056,7.421-4.122,8.688-9.784C38.519,20.127,28.306,13.742,21.889,5.315    c-1.575,0.251-3.029,1.141-4.272,2.478C20.433,19.1,28.999,30,41.249,34.596z"
   id="path3271" />
	</g>
	<g
   id="g3273">
		<path
   fill="#FBED21"
   d="M21.15,40.654c-0.99,1.663-3.023,2.278-4.543,1.374l-4.104-2.449c-1.52-0.904-1.948-2.987-0.956-4.652l0,0    c0.992-1.661,3.027-2.274,4.545-1.37l4.106,2.447C21.715,36.91,22.142,38.991,21.15,40.654L21.15,40.654z"
   id="path3275" />
	</g>
	<g
   id="g3277">
		<path
   fill="#FBED21"
   d="M43.261,40.654c0.993,1.663,3.027,2.278,4.547,1.374l4.104-2.449c1.52-0.904,1.947-2.987,0.956-4.652l0,0    c-0.992-1.661-3.027-2.274-4.545-1.37l-4.106,2.447C42.697,36.91,42.271,38.991,43.261,40.654L43.261,40.654z"
   id="path3279" />
	</g>
</g>
</svg>
